src/assets/filled/Augur.svg

<?xml version="1.0" encoding="UTF-8"?>
<svg width="24" height="24" viewBox="0 0 24 24" xmlns="http://www.w3.org/2000/svg">
 <path d="m12 2c-5.52 0-10 4.48-10 10s4.48 10 10 10 10-4.48 10-10-4.48-10-10-10zm-3.67 8.66 2.5-5c0.13-0.25 0.39-0.41 0.67-0.41h1c0.28 0 0.54 0.16 0.67 0.41l2.5 5c0.19 0.37 0.04 0.82-0.34 1.01-0.11 0.05-0.22 0.08-0.33 0.08-0.27 0-0.54-0.15-0.67-0.41l-2.29-4.59h-0.07l-2.29 4.59c-0.18 0.37-0.63 0.52-1.01 0.34-0.38-0.19-0.53-0.64-0.34-1.02zm9.06 4.98-5 3c-0.12 0.07-0.25 0.11-0.39 0.11s-0.27-0.04-0.39-0.11l-5-3c-0.34-0.2-0.46-0.63-0.29-0.98l1-2c0.19-0.37 0.64-0.52 1.01-0.34 0.37 0.19 0.52 0.64 0.34 1.01l-0.69 1.38 4.02 2.41 4.02-2.41-0.69-1.38c-0.19-0.37-0.04-0.82 0.34-1.01 0.37-0.18 0.82-0.04 1.01 0.34l1 2c0.17 0.35 0.04 0.78-0.29 0.98z"/>
</svg>

<svg width="24" height="24" viewBox="0 0 24 24"  xmlns="http://www.w3.org/2000/svg">
<path d="M12 2C6.48 2 2 6.48 2 12C2 17.52 6.48 22 12 22C17.52 22 22 17.52 22 12C22 6.48 17.52 2 12 2ZM8.33 10.66L10.83 5.66C10.96 5.41 11.22 5.25 11.5 5.25H12.5C12.78 5.25 13.04 5.41 13.17 5.66L15.67 10.66C15.86 11.03 15.71 11.48 15.33 11.67C15.22 11.72 15.11 11.75 15 11.75C14.73 11.75 14.46 11.6 14.33 11.34L12.04 6.75H11.97L9.68 11.34C9.5 11.71 9.05 11.86 8.67 11.68C8.29 11.49 8.14 11.04 8.33 10.66ZM17.39 15.64L12.39 18.64C12.27 18.71 12.14 18.75 12 18.75C11.86 18.75 11.73 18.71 11.61 18.64L6.61 15.64C6.27 15.44 6.15 15.01 6.32 14.66L7.32 12.66C7.51 12.29 7.96 12.14 8.33 12.32C8.7 12.51 8.85 12.96 8.67 13.33L7.98 14.71L12 17.12L16.02 14.71L15.33 13.33C15.14 12.96 15.29 12.51 15.67 12.32C16.04 12.14 16.49 12.28 16.68 12.66L17.68 14.66C17.85 15.01 17.72 15.44 17.39 15.64Z" />
</svg>
